src/routes/components/assets/iconCorrect.svg

<svg width="348" height="36" viewBox="0 0 348 36" fill="none" xmlns="http://www.w3.org/2000/svg">
<g clip-path="url(#clip0_133_29)">
<path d="M242.4 19.3H348" stroke="#433F3F" stroke-width="7"/>
<path d="M0 14C0 6.3 6.3 0 14 0H215.1C222.8 0 229.1 6.3 229.1 14V22C229.1 29.7 222.8 36 215.1 36H14C6.3 36 0 29.7 0 22V14Z" fill="#65AF2A"/>
<path d="M47.2001 11.1H48.5001L48.6001 13H51.8001L51.5001 14.7H48.6001L47.2001 21.4C47.0001 22.5 47.3001 23 48.3001 23H49.7001L49.4001 24.7H47.4001C45.4001 24.7 44.7001 23.6 45.1001 21.5L47.2001 11.1Z" fill="white"/>
<path d="M59.2001 13C62.3001 13 63.6001 14.1 63.1001 16.3C62.7001 18.5 61.1001 19.5 58.3001 19.5H54.6001C54.1001 21.8 55.0001 23 57.2001 23C58.9001 23 60.4001 22.5 61.6001 21.5L61.3001 23.2C60.1001 24.2 58.6001 24.7 56.9001 24.7C53.3001 24.7 51.9001 22.7 52.7001 18.7C53.4001 14.9 55.6001 13 59.2001 13ZM54.9001 17.9H58.6001C60.0001 17.9 60.8001 17.4 61.0001 16.4C61.2001 15.3 60.5001 14.7 58.8001 14.7C56.8001 14.7 55.4001 15.7 54.9001 17.9Z" fill="white"/>
<path d="M64.1001 24.8L66.5001 13H68.3001L67.8001 16.5C69.2001 14.2 71.0001 13 73.0001 13C74.9001 13 75.6001 14.1 75.1001 16.4C76.5001 14.1 78.3001 13 80.3001 13C82.3001 13 83.0001 14.3 82.5001 16.8L80.9001 24.8H78.8001L80.4001 16.8C80.7001 15.4 80.3001 14.7 79.2001 14.7C77.7001 14.7 76.3001 15.9 74.8001 18.4L73.5001 24.7H71.4001L73.0001 16.7C73.3001 15.3 72.9001 14.6 71.8001 14.6C70.3001 14.6 68.8001 15.8 67.4001 18.3L66.1001 24.6H64.1001V24.8Z" fill="white"/>
<path d="M89.8999 24.8L93.0999 8.80005H95.1999L93.6999 16.5C95.1999 14.2 96.9999 13.1 99.1999 13.1C101.4 13.1 102.2 14.4 101.7 16.9L100.1 24.8H97.9999L99.5999 16.8C99.8999 15.4 99.2999 14.7 97.9999 14.7C96.3999 14.7 94.8999 15.9 93.2999 18.4L91.9999 24.8H89.8999Z" fill="white"/>
<path d="M108.1 13L105.8 24.7H103.7L106 13H108.1ZM108.2 8.80005H110.9L107.7 11.5H105.9L108.2 8.80005Z" fill="white"/>
<path d="M113.7 13H117.3L117 14.7H113.4L111.6 23.9C111.1 26.3 110.2 28.1 108.8 29.2L107.3 28C108.4 27 109.2 25.6 109.5 23.8L111.8 12.4C112.4 9.59997 114.2 8.09998 117.3 8.09998C118.3 8.09998 119.1 8.19998 119.9 8.49998L119.6 10.2C118.8 9.89998 118 9.79998 116.9 9.79998C115.2 9.79998 114.2 10.6 113.9 12.3L113.7 13Z" fill="white"/>
<path d="M124.2 13C127.3 13 128.6 14.1 128.1 16.3C127.7 18.5 126.1 19.5 123.3 19.5H119.6C119.1 21.8 120 23 122.2 23C123.9 23 125.4 22.5 126.6 21.5L126.3 23.2C125.1 24.2 123.6 24.7 121.9 24.7C118.3 24.7 116.9 22.7 117.7 18.7C118.4 14.9 120.6 13 124.2 13ZM119.9 17.9H123.6C125 17.9 125.8 17.4 126 16.4C126.2 15.3 125.5 14.7 123.8 14.7C121.8 14.7 120.5 15.7 119.9 17.9Z" fill="white"/>
<path d="M129.2 24.8L131.5 13.1H133.3L132.8 16.7C134.3 14.3 136.1 13.1 138.3 13.1C140.5 13.1 141.3 14.4 140.8 16.9L139.2 24.8H137.1L138.7 16.8C139 15.4 138.4 14.7 137.1 14.7C135.5 14.7 134 15.9 132.4 18.4L131.1 24.7H129.2V24.8Z" fill="white"/>
<path d="M14.2002 18C14.6002 18 15.0002 18.1 15.3002 18.4C15.9002 19 16.5002 19.6 17.1002 20.2C17.2002 20.3 17.3002 20.3 17.4002 20.2C17.8002 19.7 18.3002 19.3 18.8002 18.8C19.2002 18.4 19.7002 17.9 20.1002 17.5C20.7002 16.9 21.2002 16.4 21.8002 15.9C22.2002 15.5 22.5002 15.2 22.8002 14.8C23.2002 14.4 23.6002 14 24.0002 13.6C24.4002 13.2 24.9002 12.7 25.3002 12.3C25.8002 11.8 26.6002 11.7 27.2002 12.1C27.8002 12.5 28.0002 13.3 27.7002 13.9C27.6002 14.1 27.5002 14.3 27.3002 14.4C24.3002 17.4 21.4002 20.3 18.4002 23.3C18.1002 23.6 17.8002 23.8 17.3002 23.9C16.9002 23.9 16.5002 23.8 16.2002 23.5C15.4002 22.7 14.6002 21.9 13.9002 21.2C13.7002 21 13.4002 20.7 13.2002 20.5C12.8002 20.1 12.7002 19.6 12.8002 19C13.0002 18.5 13.3002 18.1 13.9002 18C14.0002 18 14.1002 18 14.2002 18Z" fill="white"/>
</g>
<defs>
<clipPath id="clip0_133_29">
<rect width="348" height="36" fill="white"/>
</clipPath>
</defs>
</svg>

<?xml version="1.0" encoding="utf-8"?>
<!-- Generator: Adobe Illustrator 27.0.0, SVG Export Plug-In . SVG Version: 6.00 Build 0)  -->
<svg version="1.1" id="Camada_1" xmlns="http://www.w3.org/2000/svg" xmlns:xlink="http://www.w3.org/1999/xlink" x="0px" y="0px"
	 viewBox="0 0 348 36" style="enable-background:new 0 0 348 36;" xml:space="preserve">
<style type="text/css">
	.st0{clip-path:url(#SVGID_00000074406646245829553400000006960216472256243884_);}
	.st1{fill:#65AF2A;}
	.st2{fill:#FFFFFF;}
</style>
<g>
	<defs>
		<rect id="SVGID_1_" y="0" width="348" height="36"/>
	</defs>
	<clipPath id="SVGID_00000088099744079315597510000015428565559026443422_">
		<use xlink:href="#SVGID_1_"  style="overflow:visible;"/>
	</clipPath>
	<g style="clip-path:url(#SVGID_00000088099744079315597510000015428565559026443422_);">
		<path class="st1" d="M0,14C0,6.3,6.3,0,14,0h201.1c7.7,0,14,6.3,14,14v8c0,7.7-6.3,14-14,14H14C6.3,36,0,29.7,0,22V14z"/>
		<path class="st2" d="M47.2,11.1h1.3l0.1,1.9h3.2l-0.3,1.7h-2.9l-1.4,6.7C47,22.5,47.3,23,48.3,23h1.4l-0.3,1.7h-2
			c-2,0-2.7-1.1-2.3-3.2L47.2,11.1z"/>
		<path class="st2" d="M59.2,13c3.1,0,4.4,1.1,3.9,3.3c-0.4,2.2-2,3.2-4.8,3.2h-3.7C54.1,21.8,55,23,57.2,23c1.7,0,3.2-0.5,4.4-1.5
			l-0.3,1.7c-1.2,1-2.7,1.5-4.4,1.5c-3.6,0-5-2-4.2-6C53.4,14.9,55.6,13,59.2,13z M54.9,17.9h3.7c1.4,0,2.2-0.5,2.4-1.5
			c0.2-1.1-0.5-1.7-2.2-1.7C56.8,14.7,55.4,15.7,54.9,17.9z"/>
		<path class="st2" d="M64.1,24.8L66.5,13h1.8l-0.5,3.5C69.2,14.2,71,13,73,13c1.9,0,2.6,1.1,2.1,3.4c1.4-2.3,3.2-3.4,5.2-3.4
			s2.7,1.3,2.2,3.8l-1.6,8h-2.1l1.6-8c0.3-1.4-0.1-2.1-1.2-2.1c-1.5,0-2.9,1.2-4.4,3.7l-1.3,6.3h-2.1l1.6-8c0.3-1.4-0.1-2.1-1.2-2.1
			c-1.5,0-3,1.2-4.4,3.7l-1.3,6.3h-2V24.8z"/>
		<path class="st2" d="M89.9,24.8l3.2-16h2.1l-1.5,7.7c1.5-2.3,3.3-3.4,5.5-3.4c2.2,0,3,1.3,2.5,3.8l-1.6,7.9H98l1.6-8
			c0.3-1.4-0.3-2.1-1.6-2.1c-1.6,0-3.1,1.2-4.7,3.7L92,24.8H89.9z"/>
		<path class="st2" d="M108.1,13l-2.3,11.7h-2.1L106,13H108.1z M108.2,8.8h2.7l-3.2,2.7h-1.8L108.2,8.8z"/>
		<path class="st2" d="M113.7,13h3.6l-0.3,1.7h-3.6l-1.8,9.2c-0.5,2.4-1.4,4.2-2.8,5.3l-1.5-1.2c1.1-1,1.9-2.4,2.2-4.2l2.3-11.4
			c0.6-2.8,2.4-4.3,5.5-4.3c1,0,1.8,0.1,2.6,0.4l-0.3,1.7c-0.8-0.3-1.6-0.4-2.7-0.4c-1.7,0-2.7,0.8-3,2.5L113.7,13z"/>
		<path class="st2" d="M124.2,13c3.1,0,4.4,1.1,3.9,3.3c-0.4,2.2-2,3.2-4.8,3.2h-3.7c-0.5,2.3,0.4,3.5,2.6,3.5
			c1.7,0,3.2-0.5,4.4-1.5l-0.3,1.7c-1.2,1-2.7,1.5-4.4,1.5c-3.6,0-5-2-4.2-6C118.4,14.9,120.6,13,124.2,13z M119.9,17.9h3.7
			c1.4,0,2.2-0.5,2.4-1.5c0.2-1.1-0.5-1.7-2.2-1.7C121.8,14.7,120.5,15.7,119.9,17.9z"/>
		<path class="st2" d="M129.2,24.8l2.3-11.7h1.8l-0.5,3.6c1.5-2.4,3.3-3.6,5.5-3.6s3,1.3,2.5,3.8l-1.6,7.9h-2.1l1.6-8
			c0.3-1.4-0.3-2.1-1.6-2.1c-1.6,0-3.1,1.2-4.7,3.7l-1.3,6.3L129.2,24.8L129.2,24.8z"/>
		<path class="st2" d="M14.2,18c0.4,0,0.8,0.1,1.1,0.4c0.6,0.6,1.2,1.2,1.8,1.8c0.1,0.1,0.2,0.1,0.3,0c0.4-0.5,0.9-0.9,1.4-1.4
			c0.4-0.4,0.9-0.9,1.3-1.3c0.6-0.6,1.1-1.1,1.7-1.6c0.4-0.4,0.7-0.7,1-1.1c0.4-0.4,0.8-0.8,1.2-1.2c0.4-0.4,0.9-0.9,1.3-1.3
			c0.5-0.5,1.3-0.6,1.9-0.2c0.6,0.4,0.8,1.2,0.5,1.8c-0.1,0.2-0.2,0.4-0.4,0.5c-3,3-5.9,5.9-8.9,8.9c-0.3,0.3-0.6,0.5-1.1,0.6
			c-0.4,0-0.8-0.1-1.1-0.4c-0.8-0.8-1.6-1.6-2.3-2.3c-0.2-0.2-0.5-0.5-0.7-0.7c-0.4-0.4-0.5-0.9-0.4-1.5c0.2-0.5,0.5-0.9,1.1-1
			C14,18,14.1,18,14.2,18z"/>
	</g>
</g>
</svg>
